X: 144
T: No_78_I_See_Spirit-Tufts_of_White_Feathers.krn
N: Derived from No_78_I_See_Spirit-Tufts_of_White_Feathers.krn
%%abc-version 2.0
%%abcx-abcm2ps-target-version 5.9.1 (29 Sep 2008)
%%abc-creator hum2abc beta
%%abcx-conversion-date 2019/03/15 08:37:56
%%humdrum-veritas 2978890411
%%humdrum-veritas-data 1601483505
%%linebreak <none>
%%barnumbers 0
L: 1/8
M: 3/4
K: Db clef=bass
A,2 [I:setbarnb 1]| 
EE (ED) DD | 
EEE2E3/D/ | 
D2D2D3/A,/ ||  
[M:2/4]A,2!fermata!F,2 | 
A,2B,B, | 
A,A, A,A, ||  
[M:3/4]B,B,-B,2B,3/A,/ ||  
[M:2/4]A,2!fermata!F,2 ||  
[M:3/4]A,4A,2 | 
A,2z2D2 ||  
[M:2/4]EE E3/D/ ||  
[M:3/4]D2D2A,B, ||  
[M:2/4]A,2A,2 | 
A,A, A,A, | 
A,2z2 | 
A,2B,A, ||  
[M:3/4]A,A, A,A,- A,3/F,/ | 
A,A,!fermata!A,2A,3/A,/ ||  
[M:2/4]A,2z2 | 
A,2B,A, | 
A,A, A, z | 
A,A, A,A, | 
A,3F, | 
A,3/A,/A,2- | 
A,2A,2 | 
A,4- | 
A,2z2 |]  



